src/pos-icons/google-lens.svg

<svg height="24" viewBox="0 0 24 24" width="24" xmlns="http://www.w3.org/2000/svg"><path d="m6 2h12a4 4 0 0 1 4 4v6h-2v-6a2 2 0 0 0 -2-2h-12a2 2 0 0 0 -2 2v12a2 2 0 0 0 2 2h6v2h-6a4 4 0 0 1 -4-4v-12a4 4 0 0 1 4-4m6 6a4 4 0 0 1 4 4 4 4 0 0 1 -4 4 4 4 0 0 1 -4-4 4 4 0 0 1 4-4m6 8a2 2 0 0 1 2 2 2 2 0 0 1 -2 2 2 2 0 0 1 -2-2 2 2 0 0 1 2-2z"/></svg>

<?xml version="1.0" encoding="UTF-8"?><!DOCTYPE svg PUBLIC "-//W3C//DTD SVG 1.1//EN" "http://www.w3.org/Graphics/SVG/1.1/DTD/svg11.dtd"><svg xmlns="http://www.w3.org/2000/svg" xmlns:xlink="http://www.w3.org/1999/xlink" version="1.1" id="mdi-google-lens" width="24" height="24" viewBox="0 0 24 24"><path d="M6,2H18A4,4 0 0,1 22,6V12H20V6A2,2 0 0,0 18,4H6A2,2 0 0,0 4,6V18A2,2 0 0,0 6,20H12V22H6A4,4 0 0,1 2,18V6A4,4 0 0,1 6,2M12,8A4,4 0 0,1 16,12A4,4 0 0,1 12,16A4,4 0 0,1 8,12A4,4 0 0,1 12,8M18,16A2,2 0 0,1 20,18A2,2 0 0,1 18,20A2,2 0 0,1 16,18A2,2 0 0,1 18,16Z" /></svg>
